packages/icons/svg/Media_Pdf_24px.svg

<svg xmlns="http://www.w3.org/2000/svg" viewBox="0 0 24 24"><path d="M9.41 15.13a1.67 1.67 0 00-.69-.13H7.5v3.38h.81v-1.13h.4a1.84 1.84 0 00.69-.13 1 1 0 00.48-.4 1 1 0 00.17-.61 1 1 0 00-.17-.6 1.12 1.12 0 00-.47-.38zm-.34 1.35a.65.65 0 01-.41.13h-.35v-1h.37a.62.62 0 01.4.12.42.42 0 01.14.35.43.43 0 01-.15.4zM11.88 15h-1.26v3.38h1.26a1.52 1.52 0 001.65-1.69 1.65 1.65 0 00-.45-1.28 1.69 1.69 0 00-1.2-.41zm.57 2.5a.92.92 0 01-.65.23h-.37v-2.08h.37a1 1 0 01.66.22 1.1 1.1 0 01.24.82 1.06 1.06 0 01-.25.81zM14.18 18.38h.81v-1.3h1.25v-.62h-1.25v-.81h1.51V15h-2.32v3.38z"/><path d="M14 2H5a1 1 0 00-1 1v18a1 1 0 001 1h14a1 1 0 001-1V8a1 1 0 00-.29-.71l-5-5A1 1 0 0014 2zm1 3.41L16.59 7H15zM6 20V4h7v4a1 1 0 001 1h4v11z"/></svg>

<svg xmlns="http://www.w3.org/2000/svg" viewBox="0 0 24 24"><defs></defs><g id="Icon"><path  d="M9.41,15.13A1.67,1.67,0,0,0,8.72,15H7.5v3.38h.81V17.25h.4a1.84,1.84,0,0,0,.69-.13,1,1,0,0,0,.48-.4,1,1,0,0,0,.17-.61,1,1,0,0,0-.17-.6A1.12,1.12,0,0,0,9.41,15.13Zm-.34,1.35a.65.65,0,0,1-.41.13H8.31v-1h.37a.62.62,0,0,1,.4.12.42.42,0,0,1,.14.35A.43.43,0,0,1,9.07,16.48Z"/><path  d="M11.88,15H10.62v3.38h1.26a1.52,1.52,0,0,0,1.65-1.69,1.65,1.65,0,0,0-.45-1.28A1.69,1.69,0,0,0,11.88,15Zm.57,2.5a.92.92,0,0,1-.65.23h-.37V15.65h.37a1,1,0,0,1,.66.22,1.1,1.1,0,0,1,.24.82A1.06,1.06,0,0,1,12.45,17.5Z"/><polygon  points="14.18 18.38 14.99 18.38 14.99 17.08 16.24 17.08 16.24 16.46 14.99 16.46 14.99 15.65 16.5 15.65 16.5 15 14.18 15 14.18 18.38"/><path  d="M14,2H5A1,1,0,0,0,4,3V21a1,1,0,0,0,1,1H19a1,1,0,0,0,1-1V8a1,1,0,0,0-.29-.71l-5-5A1,1,0,0,0,14,2Zm1,3.41L16.59,7H15ZM6,20V4h7V8a1,1,0,0,0,1,1h4V20Z"/></g></svg>
